X: 30007
T: Off She Goes
R: jig
M: 6/8
K: Gmajor
F2A G2B|ABc d3|F2A G2B|AGF E3|F2A G2B|ABc d3|gaf g2f|edc d3:|
|:faf d2f|gbg e2g|faf d2f|gec d3|faf d2f|ege c2A|B2c d2B|gec d3:|
A|F2A G2B|ABc d3|F2A G2B|AFD E3|F2A G2B|ABc d2e|f2d g2f|edc d2:|
|:g|f/g/af d2f|g/a/bg e2g|f/g/af d2f|ecA A2g|f/g/af d2f|g/a/bg e2g|f2d g2f|edc d2:|
F2A G2B|ABA [F3d3]|F2A G2B|AGF ~E3|F2A G2B|
ABA [F2d2]e|f2d g2f|edc [F3d3]||(f/g/a)f d2f|(e/f/g)e c2e|
(f/g/a)f d2f|edc [F3d3]|(f/g/a)f d2f|(e/f/g)e c2e|d2g {f/g/}a2f|gec [F3d3]||
A|F2A G2B|ABc d3|F2A G2B|AFD E3|F2A G2B|ABc d2e|f2d g2f|edc d2:|
gbg efg|f2a f2d|ecA A3|gbg efg|fed g2f|edc d3:|
B2d c2e|def g2d|B2d c2e|dcB A3|B2d c2e|def g3|B2G c2B|AGF G3:|
c2e c2A|B2d B2G|A2F D3|
c2e c2A|B2d B2g|A3 G3:|

